public/assets/images/lex_tips/faq.svg

<svg width="328" height="328" viewBox="0 0 328 328" fill="none" xmlns="http://www.w3.org/2000/svg">
<path d="M304.859 173.402C303.37 158.842 298.388 137.763 278.075 130.27C270.47 139.923 255.295 133.348 251.343 126.797C243.392 139.228 229.882 150.89 220.947 165.993C216.636 173.287 211.435 181.874 216.711 189.884C232.584 188.428 248.556 188.393 264.435 189.779C269.342 181.261 269.916 178.112 269.847 170.591C269.847 169.793 270.995 169.443 271.097 170.417C271.859 177.25 270.31 184.141 266.698 189.991C268.648 190.114 270.584 190.4 272.486 190.847C274.126 191.244 273.644 192.364 272.195 192.224C254.332 190.506 236.346 190.476 218.477 192.133C224.16 199.332 223.86 203.708 222.448 211.157C231.812 217.58 266.072 226.081 281.488 221.389C295.661 217.075 306.611 190.534 304.859 173.402Z" fill="#71B6F6"/>
<path d="M160.194 143.226C151.42 137.914 132.924 136.514 122.727 141.953C120.528 150.67 113.177 161.076 109.543 164.374C104.149 163.062 94.7616 158.668 91.2536 151.931C75.6736 156.909 60.4413 180.602 55.9395 196.495C49.6895 189.92 37.6273 172.812 35.1115 167.001C29.8001 170.621 23.7153 172.948 17.3438 173.796C22.2867 208.236 44.799 239.906 60.7726 238.72C73.5055 237.774 81.7465 224.298 86.6075 215.327C83.6359 212.015 81.0678 208.363 78.9569 204.446C78.5289 203.642 79.1209 202.12 80.1147 203.404C99.6307 228.66 126.888 244.148 163.099 246.231C144.985 221.543 138.838 167.546 160.194 143.226Z" fill="#71B6F6"/>
<path d="M110.121 122.369C115.145 121.698 115.468 113.919 111.197 111.604C111.859 107.184 112.103 102.713 111.927 98.2474C111.686 91.9039 108.175 89.1061 102.366 88.432C97.2445 87.8339 92.4578 85.5828 88.7309 82.0196C82.2742 75.8483 82.758 85.5719 88.7309 89.8096C83.2635 89.2007 77.942 87.6539 73 85.2373C69.6085 83.2004 67.957 83.8991 68.6835 86.8462C69.0356 88.3625 69.7178 89.7824 70.6817 91.0048C71.6455 92.2272 72.8671 93.2218 74.2595 93.9178C68.7046 94.6507 63.0596 94.2772 57.6496 92.819C52.9887 91.507 50.7058 91.9384 53.1478 96.0023C55.1555 98.9165 57.7546 101.375 60.7759 103.218C63.7971 105.06 67.1727 106.246 70.6827 106.697C78.7269 107.574 87.3959 105.319 96.7718 101.696C97.8813 106.986 100.82 111.716 105.07 115.054C105.574 115.453 106.295 115.517 106.546 114.787C108.039 110.359 113.772 114.787 111.604 118.931C110.848 120.376 109.764 120.274 108.711 120.286C107.658 120.297 108.004 120.934 108.155 121.883C108.77 125.772 115.44 140.64 118.307 143.157C118.991 143.757 119.628 142.97 119.209 142.29C115.348 136.061 112.294 129.367 110.121 122.369Z" fill="#191919"/>
<path d="M81.9033 111.095C81.1003 111.221 80.3445 111.556 79.7114 112.066C79.0782 112.575 78.5899 113.242 78.2953 114C77.7574 115.407 78.4921 116.014 79.4515 114.775C80.2979 113.881 81.3518 113.21 82.5199 112.82C83.476 112.438 83.558 110.828 81.9033 111.095Z" fill="#191919"/>
<path d="M79.9473 118.977C79.6947 119.695 80.2752 120.041 80.8968 119.51C81.2406 119.214 81.643 118.994 82.0776 118.864C82.5123 118.735 82.9694 118.698 83.4191 118.757C84.3113 118.757 84.3752 118.003 83.6618 117.599C83.3341 117.411 82.9688 117.297 82.592 117.265C82.2152 117.234 81.836 117.286 81.4815 117.417C81.127 117.549 80.8057 117.757 80.5406 118.026C80.2754 118.296 80.0729 118.62 79.9473 118.977Z" fill="#191919"/>
<path d="M93.6607 115.054C93.3092 114.835 92.9146 114.694 92.5038 114.64C92.0929 114.586 91.6753 114.622 91.2792 114.743C90.8832 114.865 90.5179 115.07 90.2081 115.346C89.8983 115.621 89.6512 115.959 89.4836 116.338C89.2278 117.034 89.687 117.391 90.1396 117.068C91.0447 116.403 92.1409 116.05 93.2638 116.061C93.8346 115.991 94.402 115.456 93.6607 115.054Z" fill="#191919"/>
<path d="M92.4237 128.481C91.8366 128.82 91.7677 129.719 92.8993 129.453C96.6959 128.551 98.7639 126.29 97.2617 123.446C96.8304 122.626 95.6545 123.307 96.0235 124.128C97.2059 126.756 93.8423 127.659 92.4237 128.481Z" fill="#191919"/>
<path d="M92.4969 109.324C91.6163 108.896 90.6417 108.699 89.6641 108.749C88.6865 108.8 87.7377 109.098 86.9061 109.614C86.7469 109.736 86.6349 109.91 86.5892 110.105C86.5435 110.301 86.5669 110.506 86.6555 110.686C86.7441 110.866 86.8923 111.01 87.0749 111.093C87.2576 111.176 87.4634 111.193 87.6572 111.141C89.0683 110.582 90.5935 110.372 92.1033 110.528C93.0971 110.7 93.4989 109.896 92.4969 109.324Z" fill="#191919"/>
<path d="M85.734 118.178C85.3109 119.838 84.6467 125.211 86.6475 125.76C87.6905 126.047 90.7999 124.824 90.1899 123.758C89.7126 122.926 87.4855 124.509 87.2034 124.036C86.6295 122.124 86.4795 120.109 86.7639 118.132C86.7869 117.219 86.1801 116.424 85.734 118.178Z" fill="#191919"/>
<path d="M185.776 149.002C185.604 145.16 181.147 140.159 177.488 140.136C176.632 140.136 175.972 141.386 176.832 141.612C178.701 142.111 180.404 143.097 181.766 144.47C183.129 145.843 184.103 147.553 184.587 149.425C184.871 150.422 185.845 150.565 185.776 149.002Z" fill="#191919"/>
<path d="M188.928 143.215C187.728 138.073 181.985 135.892 177.158 136.548C171.684 137.293 167.121 141.073 163.615 145.24C159.887 149.668 163.139 156.674 155.976 159.569C154.336 160.225 154.98 161.363 156.647 160.854C165.317 158.204 162.006 149.394 165.201 146.304C168.395 143.215 171.776 139.835 176.371 138.723C180.966 137.611 185.768 139.329 187.644 143.78C187.995 144.628 189.135 144.118 188.928 143.215Z" fill="#191919"/>
<path d="M180.102 151.689C180.794 153.165 181.814 152.627 181.434 151.197C180.515 147.726 177.368 142.806 173.111 143.303C172.255 143.403 172.404 144.73 173.111 144.924C178.036 146.262 179.01 149.342 180.102 151.689Z" fill="#191919"/>
<path d="M168.471 146.654C167.557 146.803 167.313 148.231 168.471 148.274C170.017 148.254 171.525 148.751 172.756 149.686C173.987 150.621 174.87 151.941 175.265 153.435C175.705 154.327 176.413 154.327 176.423 153.123C176.441 149.581 172.244 146.035 168.471 146.654Z" fill="#191919"/>
<path d="M16.4236 150.867C14.4146 143.052 13.9931 140.699 14.1096 135.703C14.1358 134.546 13.1026 134.823 12.709 136.34C11.8629 141.527 12.6726 146.848 15.023 151.549C15.4412 152.382 16.645 151.723 16.4236 150.867Z" fill="#191919"/>
<path d="M9.54729 141.479C9.54729 140.148 8.25169 140.738 8.21561 141.583C8.06738 148.123 9.84256 154.563 13.3209 160.103C15.3066 163.502 16.8326 167.149 17.8588 170.949C18.1589 172.013 19.4742 172.187 19.3053 170.093C18.5939 166.106 17.1049 162.299 14.9232 158.888C11.7319 153.613 9.88584 147.635 9.54729 141.479Z" fill="#191919"/>
<path d="M32.4195 143.992C31.6307 142.627 30.6861 143.603 31.2633 144.648C34.996 151.359 26.9141 159.864 32.4195 166.061C32.557 166.187 32.733 166.262 32.9187 166.274C33.1043 166.286 33.2886 166.235 33.4412 166.128C33.5938 166.022 33.7057 165.866 33.7584 165.688C33.8112 165.51 33.8017 165.319 33.7315 165.146C30.1367 158.26 36.3457 150.78 32.4195 143.992Z" fill="#191919"/>
<path d="M24.1438 135.628C24.1274 134.864 23.1467 134.168 22.8482 135.628C22.2759 138.416 22.6055 146.742 24.4095 149.055C24.5135 149.182 24.6562 149.272 24.8159 149.31C24.9757 149.349 25.1437 149.335 25.2944 149.269C25.4451 149.204 25.5703 149.091 25.651 148.947C25.7316 148.804 25.7633 148.639 25.7412 148.476C24.8234 144.25 24.2888 139.95 24.1438 135.628Z" fill="#191919"/>
<path d="M19.3978 133.573C19.3978 132.717 18.4138 132.614 18.1022 133.573C16.8656 137.466 17.3216 145.699 19.6176 149.317C20.1096 150.103 21.4773 149.781 21.2576 148.75C19.8532 143.818 19.2257 138.698 19.3978 133.573Z" fill="#191919"/>
<path d="M211.635 193.028C212.491 193.377 212.719 192.026 212.214 191.552C209.285 188.775 200.639 188.403 196.286 191.668C196.123 191.756 196 191.904 195.943 192.08C195.886 192.256 195.899 192.448 195.98 192.615C196.06 192.781 196.202 192.911 196.375 192.976C196.549 193.041 196.74 193.037 196.911 192.964C204.33 190.058 208.173 191.626 211.635 193.028Z" fill="#191919"/>
<path d="M205.222 205.754C212.812 204.503 213.466 206.584 215.859 206.75C216.079 206.768 216.297 206.699 216.466 206.558C216.636 206.416 216.743 206.214 216.764 205.994C216.946 203.978 209.13 202.333 204.746 204.482C203.882 204.905 204.389 205.892 205.222 205.754Z" fill="#191919"/>
<path d="M200.833 202.097C208.603 199.688 211.242 201.21 215.58 202.397C216.446 202.635 216.669 201.354 216.088 200.882C213.036 198.387 204.608 198.412 200.382 200.811C199.629 201.239 199.895 202.387 200.833 202.097Z" fill="#191919"/>
<path d="M198.518 198.045C205.465 195.934 208.544 196.952 213.185 197.717C213.366 197.744 213.552 197.713 213.713 197.626C213.875 197.539 214.004 197.402 214.081 197.235C214.158 197.069 214.179 196.882 214.14 196.702C214.102 196.523 214.006 196.361 213.867 196.241C210.895 193.654 201.416 193.989 197.893 196.785C197.128 197.399 197.639 198.312 198.518 198.045Z" fill="#191919"/>
<path d="M312.6 92.9338C308.974 94.7306 304.935 95.5299 300.898 95.2495C296.534 103.745 290.115 118.551 278.471 117.096C274.663 116.622 272.507 113.696 270.23 110.961C269.604 110.21 268.904 110.895 269.246 111.633C270.482 114.273 272.356 116.564 274.698 118.3C273.54 120.76 272.382 127.271 272.915 129.678C272.946 129.825 273.027 129.958 273.144 130.053C273.261 130.148 273.407 130.2 273.557 130.2C273.708 130.2 273.854 130.148 273.971 130.053C274.088 129.958 274.168 129.825 274.199 129.678C274.276 128.542 274.45 127.415 274.721 126.309C282.534 127.93 292.72 133.361 298.265 142.409C314.561 138.937 315.996 120.811 306.748 113.959C318.076 111.072 317.636 96.8239 312.6 92.9338Z" fill="#191919"/>
<path d="M284.822 101.001C286.134 101.344 287.446 98.3393 286.361 97.657C284.918 96.76 283.037 100.532 284.822 101.001Z" fill="#191919"/>
<path d="M292.647 104.632C293.62 104.693 294.699 102.721 294.442 101.946C293.697 99.712 290.345 104.491 292.647 104.632Z" fill="#191919"/>
<path d="M295.239 97.1815C296.055 97.6689 296.695 98.4028 297.068 99.2774C297.287 100.065 298.352 100.319 298.34 98.9183C298.273 98.1872 298.003 97.4892 297.562 96.9024C297.12 96.3157 296.525 95.8632 295.841 95.5956C294.599 95.1299 293.571 96.2024 295.239 97.1815Z" fill="#191919"/>
<path d="M288.884 94.4279C290.377 94.9199 290.852 93.6391 289.672 92.7715C288.771 92.2156 287.73 91.9318 286.672 91.9545C285.614 91.9772 284.586 92.3054 283.71 92.8995C283.154 93.4899 283.456 94.0573 284.202 93.9409C285.774 93.5885 287.418 93.7595 288.884 94.4279Z" fill="#191919"/>
<path d="M277.414 106.436C277.3 107.025 277.305 107.632 277.43 108.219C277.554 108.806 277.796 109.362 278.141 109.854C278.486 110.345 278.926 110.762 279.435 111.08C279.945 111.397 280.513 111.609 281.106 111.702C281.187 111.758 281.28 111.795 281.378 111.809C281.475 111.824 281.575 111.815 281.668 111.784C281.762 111.754 281.847 111.701 281.917 111.632C281.987 111.563 282.04 111.478 282.072 111.385C282.104 111.291 282.113 111.192 282.1 111.094C282.087 110.996 282.051 110.903 281.996 110.822C281.94 110.74 281.866 110.673 281.78 110.624C281.694 110.576 281.598 110.549 281.5 110.544C281.103 110.445 280.731 110.266 280.406 110.017C280.082 109.769 279.811 109.457 279.612 109.1C279.412 108.744 279.287 108.35 279.245 107.943C279.203 107.537 279.245 107.126 279.368 106.736C279.868 103.873 277.741 104.452 277.414 106.436Z" fill="#191919"/>
<path d="M288.294 108.85C289.66 108.202 290.877 102.899 290.192 102.193C289.131 101.103 289.044 105.737 287.53 107.056C286.874 107.623 286.054 105.99 285.216 106.477C284.188 107.074 286.431 109.731 288.294 108.85Z" fill="#191919"/>
<path d="M203.797 257.564C202.351 258.838 204.739 260.534 206.111 259.646C222.511 249.055 240.397 260.074 236.276 278.895C236.144 279.297 236.176 279.735 236.363 280.114C236.55 280.494 236.878 280.785 237.277 280.926C237.676 281.067 238.115 281.046 238.498 280.868C238.882 280.689 239.181 280.368 239.331 279.973C247.733 258.808 220.67 242.677 203.797 257.564Z" fill="#191919"/>
<path d="M240.409 251.486C226.522 239.186 197.917 238.325 183.501 250.515C153.161 276.174 181.008 319.254 219.522 311.721C248.693 306.024 262.301 270.869 240.409 251.486ZM223.394 307.382C191.189 317.789 157.63 284.032 182.245 256.152C194.732 242.005 223.033 241.406 237.4 253.142C257.352 269.44 247.34 299.643 223.394 307.382Z" fill="#191919"/>
<path d="M271.012 94.7919C271.526 96.3532 271.504 96.878 273.686 95.5103C277.09 93.3783 280.352 91.4939 282.4 84.6075C285.827 88.2653 290.21 90.8882 295.053 92.1781C299.896 93.4679 305.004 93.3729 309.795 91.9039C319.691 88.8469 328.79 66.1149 303.071 64.4946C303.927 50.917 280.962 50.8252 278.417 61.7394C270.151 55.7665 259.896 60.5914 258.542 65.9181C266.645 88.0269 259.7 109.786 253.912 121.57C252.292 124.87 254.404 124.358 254.896 123.387C258.612 115.956 261.515 108.661 266.704 101.996C267.609 100.834 266.809 100.388 265.825 99.9251C265.463 99.7164 265.148 99.4366 264.897 99.1027C264.646 98.7687 264.466 98.3875 264.366 97.982C264.266 97.5764 264.25 97.155 264.317 96.7429C264.385 96.3308 264.535 95.9366 264.759 95.5841C266.102 92.5173 270.015 91.7727 271.012 94.7919Z" fill="#191919"/>
<path d="M102.9 132.172C102.011 133.726 100.778 135.056 99.2947 136.059C97.8119 137.062 96.119 137.713 94.3459 137.96C81.1275 139.569 78.0197 120.391 75.9877 111.246C75.6515 109.729 74.7036 110.551 74.8299 111.41C75.7909 121.562 79.8187 140.984 93.3504 140.036C93.9573 143.686 94.0622 147.401 93.662 151.078C93.5718 151.969 94.5082 152.861 95.2019 150.962C96.0482 148.648 95.9547 142.762 95.4562 139.689C97.272 139.214 98.9678 138.362 100.434 137.19C101.899 136.017 103.102 134.55 103.964 132.883C104.443 131.961 103.381 131.364 102.9 132.172Z" fill="#191919"/>
<path d="M177.964 241.647C186.067 240.007 207.707 232.811 214.019 227.342C215.048 226.45 213.88 224.564 212.63 225.165C196.722 232.814 189.48 234.425 173.403 239.228C155.763 215.071 148.086 186.017 169.387 156.515C170.489 154.988 168.25 153.579 167.071 155.08C148.457 178.786 148.539 208.915 168.517 238.418C171.663 243.063 171.873 242.884 177.964 241.647Z" fill="#191919"/>
<path d="M94.0778 38.1038C129.079 15.744 171.442 11.6145 209.248 29.684C251.633 49.9462 267.108 83.927 241.798 126.231C231.708 143.092 208.709 163.695 205.788 181.107C205.46 183.05 208.117 183.818 208.461 181.846C211.302 165.583 232.456 146.532 242.098 131.662C268.723 90.5838 259.836 54.1003 217.17 30.3712C179.077 9.19219 128.024 9.83999 92.8232 36.4949C91.5112 37.492 92.5395 39.0878 94.0778 38.1038Z" fill="#191919"/>
<path d="M195.07 92.1008C207.065 104.98 200.101 122.793 187.396 132.289C186.019 133.319 187.662 135.333 189.2 134.198C202.036 124.742 210.028 107.579 200.034 93.0159C186.012 72.5881 154.534 76.6717 135.215 92.6879C123.341 79.8549 105.616 58.3447 95.1101 44.0652C94.0211 42.5892 92.5287 43.6946 93.7554 45.3772C104.179 59.7485 119.748 80.3256 131.733 93.9901C133.944 96.5124 134.565 97.1946 137.265 95.0561C152.959 82.6282 179.48 75.3613 195.07 92.1008Z" fill="#191919"/>
<path d="M231.368 58.0822C211.117 29.2379 162.556 20.0818 131.824 36.1948C131.403 36.3872 131.076 36.7389 130.913 37.1726C130.751 37.6063 130.768 38.0866 130.959 38.5082C131.151 38.9297 131.502 39.2581 131.935 39.4212C132.369 39.5842 132.849 39.5687 133.271 39.378C170.948 24.9674 201.987 35.5372 229.262 60.0617C230.895 61.5312 232.716 60.0043 231.368 58.0822Z" fill="#191919"/>
<path d="M215.777 221.669C217.568 224.796 220.245 223.145 218.357 220.142C216.47 217.139 214.461 213.831 212.443 210.72C211.692 209.561 209.642 210.72 210.324 211.97C212.11 215.221 213.927 218.454 215.777 221.669Z" fill="#191919"/>
</svg>

<svg xmlns="http://www.w3.org/2000/svg" fill="none" viewBox="0 0 328 328"><path fill="#71b6f6" d="M304.859 173.402c-1.489-14.56-6.471-35.639-26.784-43.132-7.605 9.653-22.78 3.078-26.732-3.473-7.951 12.431-21.461 24.093-30.396 39.196-4.311 7.294-9.512 15.881-4.236 23.891a267.7 267.7 0 0 1 47.724-.105c4.907-8.518 5.481-11.667 5.412-19.188 0-.798 1.148-1.148 1.25-.174a30.77 30.77 0 0 1-4.399 19.574c1.95.123 3.886.409 5.788.856 1.64.397 1.158 1.517-.291 1.377a285.6 285.6 0 0 0-53.718-.091c5.683 7.199 5.383 11.575 3.971 19.024 9.364 6.423 43.624 14.924 59.04 10.232 14.173-4.314 25.123-30.855 23.371-47.987m-144.665-30.176c-8.774-5.312-27.27-6.712-37.467-1.273-2.199 8.717-9.55 19.123-13.184 22.421-5.394-1.312-14.781-5.706-18.29-12.443-15.58 4.978-30.812 28.671-35.313 44.564-6.25-6.575-18.313-23.683-20.828-29.494a41.2 41.2 0 0 1-17.768 6.795c4.943 34.44 27.455 66.11 43.429 64.924 12.732-.946 20.973-14.422 25.835-23.393a56.3 56.3 0 0 1-7.651-10.881c-.428-.804.164-2.326 1.158-1.042 19.516 25.256 46.773 40.744 82.984 42.827-18.114-24.688-24.261-78.685-2.905-103.005"/><path fill="#191919" d="M110.121 122.369c5.024-.671 5.347-8.45 1.076-10.765.662-4.42.906-8.891.73-13.357-.241-6.343-3.752-9.14-9.561-9.815a23.7 23.7 0 0 1-13.635-6.412c-6.457-6.172-5.973 3.552 0 7.79A47.9 47.9 0 0 1 73 85.237c-3.391-2.037-5.043-1.338-4.317 1.61a10.58 10.58 0 0 0 5.576 7.07c-5.554.734-11.2.36-16.61-1.098-4.66-1.312-6.943-.88-4.501 3.183a25.2 25.2 0 0 0 17.535 10.695c8.044.877 16.713-1.378 26.089-5.001a23 23 0 0 0 8.298 13.358c.504.399 1.225.463 1.476-.267 1.493-4.428 7.226 0 5.058 4.144-.756 1.445-1.84 1.343-2.893 1.355-1.053.011-.707.648-.556 1.597.615 3.889 7.285 18.757 10.152 21.274.684.6 1.321-.187.902-.867a86.5 86.5 0 0 1-9.088-19.921"/><path fill="#191919" d="M81.903 111.095A4.64 4.64 0 0 0 78.295 114c-.538 1.407.197 2.014 1.156.775a7.5 7.5 0 0 1 3.069-1.955c.956-.382 1.038-1.992-.617-1.725m-1.956 7.882c-.252.718.328 1.064.95.533a3.23 3.23 0 0 1 2.522-.753c.892 0 .956-.754.243-1.158a2.6 2.6 0 0 0-1.07-.334 2.59 2.59 0 0 0-2.051.761c-.266.27-.468.594-.594.951m13.713-3.923a2.9 2.9 0 0 0-2.38-.311 2.9 2.9 0 0 0-1.796 1.595c-.256.696.203 1.053.656.73a5.2 5.2 0 0 1 3.124-1.007c.57-.07 1.138-.605.397-1.007m-1.237 13.427c-.587.339-.656 1.238.475.972 3.797-.902 5.865-3.163 4.363-6.007-.432-.82-1.608-.139-1.239.682 1.183 2.628-2.18 3.531-3.6 4.353m.074-19.157a5.8 5.8 0 0 0-5.59.29.869.869 0 0 0 .75 1.527 9.44 9.44 0 0 1 4.446-.613c.994.172 1.396-.632.394-1.204m-6.763 8.854c-.423 1.66-1.087 7.033.913 7.582 1.043.287 4.153-.936 3.543-2.002-.477-.832-2.704.751-2.987.278a13.7 13.7 0 0 1-.44-5.904c.024-.913-.583-1.708-1.029.046m100.042 30.824c-.172-3.842-4.629-8.843-8.288-8.866-.856 0-1.516 1.25-.656 1.476a10.92 10.92 0 0 1 7.755 7.813c.284.997 1.258 1.14 1.189-.423"/><path fill="#191919" d="M188.928 143.215c-1.2-5.142-6.943-7.323-11.77-6.667-5.474.745-10.037 4.525-13.543 8.692-3.728 4.428-.476 11.434-7.639 14.329-1.64.656-.996 1.794.671 1.285 8.67-2.65 5.359-11.46 8.554-14.55 3.194-3.089 6.575-6.469 11.17-7.581s9.397.606 11.273 5.057c.351.848 1.491.338 1.284-.565"/><path fill="#191919" d="M180.102 151.689c.692 1.476 1.712.938 1.332-.492-.919-3.471-4.066-8.391-8.323-7.894-.856.1-.707 1.427 0 1.621 4.925 1.338 5.899 4.418 6.991 6.765m-11.631-5.035c-.914.149-1.158 1.577 0 1.62a6.936 6.936 0 0 1 6.794 5.161c.44.892 1.148.892 1.158-.312.018-3.542-4.179-7.088-7.952-6.469m-152.047 4.213c-2.01-7.815-2.43-10.168-2.314-15.164.026-1.157-1.007-.88-1.401.637a25 25 0 0 0 2.314 15.209c.418.833 1.622.174 1.4-.682m-6.876-9.388c0-1.331-1.295-.741-1.331.104a33.4 33.4 0 0 0 5.105 18.52 44.5 44.5 0 0 1 4.538 10.846c.3 1.064 1.615 1.238 1.446-.856a30.9 30.9 0 0 0-4.382-11.205 37.6 37.6 0 0 1-5.376-17.409m22.873 2.513c-.79-1.365-1.734-.389-1.157.656 3.733 6.711-4.349 15.216 1.156 21.413a.82.82 0 0 0 1.022.067.82.82 0 0 0 .29-.982c-3.594-6.886 2.615-14.366-1.312-21.154m-8.275-8.364c-.017-.764-.997-1.46-1.296 0-.572 2.788-.242 11.114 1.562 13.427a.75.75 0 0 0 .884.214.75.75 0 0 0 .447-.793 72 72 0 0 1-1.597-12.848m-4.746-2.055c0-.856-.984-.959-1.296 0-1.236 3.893-.78 12.126 1.516 15.744.492.786 1.86.464 1.64-.567a49.4 49.4 0 0 1-1.86-15.177m192.237 59.455c.856.349 1.084-1.002.579-1.476-2.929-2.777-11.575-3.149-15.928.116a.721.721 0 0 0 .625 1.296c7.419-2.906 11.262-1.338 14.724.064m-6.413 12.726c7.59-1.251 8.244.83 10.637.996a.84.84 0 0 0 .905-.756c.182-2.016-7.634-3.661-12.018-1.512-.864.423-.357 1.41.476 1.272m-4.389-3.657c7.77-2.409 10.409-.887 14.747.3.866.238 1.089-1.043.508-1.515-3.052-2.495-11.48-2.47-15.706-.071-.753.428-.487 1.576.451 1.286m-2.315-4.052c6.947-2.111 10.026-1.093 14.667-.328a.848.848 0 0 0 .955-1.015.84.84 0 0 0-.273-.461c-2.972-2.587-12.451-2.252-15.974.544-.765.614-.254 1.527.625 1.26M312.6 92.934a22.8 22.8 0 0 1-11.702 2.316c-4.364 8.495-10.783 23.301-22.427 21.846-3.808-.474-5.964-3.4-8.241-6.135-.626-.751-1.326-.066-.984.672a17.6 17.6 0 0 0 5.452 6.667c-1.158 2.46-2.316 8.971-1.783 11.378a.66.66 0 0 0 .642.522.66.66 0 0 0 .642-.522c.077-1.136.251-2.263.522-3.369 7.813 1.621 17.999 7.052 23.544 16.1 16.296-3.472 17.731-21.598 8.483-28.45 11.328-2.887 10.888-17.135 5.852-21.025m-27.778 8.067c1.312.343 2.624-2.662 1.539-3.344-1.443-.897-3.324 2.875-1.539 3.344"/><path fill="#191919" d="M292.647 104.632c.973.061 2.052-1.911 1.795-2.686-.745-2.234-4.097 2.545-1.795 2.686m2.592-7.45a4.5 4.5 0 0 1 1.829 2.095c.219.788 1.284 1.042 1.272-.359a3.96 3.96 0 0 0-2.499-3.322c-1.242-.466-2.27.606-.602 1.585m-6.355-2.753c1.493.492 1.968-.789.788-1.656a5.49 5.49 0 0 0-5.962.127c-.556.59-.254 1.158.492 1.042a7.4 7.4 0 0 1 4.682.487m-11.47 12.008a4.48 4.48 0 0 0 .727 3.418c.345.491.785.908 1.294 1.226a4.5 4.5 0 0 0 1.671.622.637.637 0 1 0 .394-1.158 3 3 0 0 1-1.888-1.444 3 3 0 0 1-.244-2.364c.5-2.863-1.627-2.284-1.954-.3m10.88 2.414c1.366-.648 2.583-5.951 1.898-6.657-1.061-1.09-1.148 3.544-2.662 4.863-.656.567-1.476-1.066-2.314-.579-1.028.597 1.215 3.254 3.078 2.373m-84.497 148.714c-1.446 1.274.942 2.97 2.314 2.082 16.4-10.591 34.286.428 30.165 19.249a1.62 1.62 0 0 0 3.055 1.078c8.402-21.165-18.661-37.296-35.534-22.409"/><path fill="#191919" d="M240.409 251.486c-13.887-12.3-42.492-13.161-56.908-.971-30.34 25.659-2.493 68.739 36.021 61.206 29.171-5.697 42.779-40.852 20.887-60.235m-17.015 55.896c-32.205 10.407-65.764-23.35-41.149-51.23 12.487-14.147 40.788-14.746 55.155-3.01 19.952 16.298 9.94 46.501-14.006 54.24m47.618-212.59c.514 1.561.492 2.086 2.674.718 3.404-2.132 6.666-4.016 8.714-10.903a26.78 26.78 0 0 0 27.395 7.297c9.896-3.057 18.995-25.79-6.724-27.41.856-13.577-22.109-13.669-24.654-2.755-8.266-5.972-18.521-1.148-19.875 4.18 8.103 22.108 1.158 43.867-4.63 55.651-1.62 3.3.492 2.788.984 1.817 3.716-7.431 6.619-14.726 11.808-21.391.905-1.162.105-1.608-.879-2.07a3.094 3.094 0 0 1-1.066-4.342c1.343-3.067 5.256-3.811 6.253-.792M102.9 132.172a11.71 11.71 0 0 1-8.554 5.788c-13.219 1.609-16.326-17.569-18.358-26.714-.337-1.517-1.284-.695-1.158.164.96 10.152 4.989 29.574 18.52 28.626.607 3.65.712 7.365.312 11.042-.09.891.846 1.783 1.54-.116.846-2.314.753-8.2.254-11.273a13.4 13.4 0 0 0 4.978-2.499 13.4 13.4 0 0 0 3.53-4.307c.479-.922-.583-1.519-1.064-.711m75.064 109.475c8.103-1.64 29.743-8.836 36.055-14.305 1.029-.892-.139-2.778-1.389-2.177-15.908 7.649-23.15 9.26-39.227 14.063-17.64-24.157-25.317-53.211-4.016-82.713 1.102-1.527-1.137-2.936-2.316-1.435-18.614 23.706-18.532 53.835 1.446 83.338 3.146 4.645 3.356 4.466 9.447 3.229"/><path fill="#191919" d="M94.078 38.104c35.001-22.36 77.364-26.49 115.17-8.42 42.385 20.262 57.86 54.243 32.55 96.547-10.09 16.861-33.089 37.464-36.01 54.876-.328 1.943 2.329 2.711 2.673.739 2.841-16.263 23.995-35.314 33.637-50.184 26.625-41.078 17.738-77.562-24.928-101.29-38.093-21.18-89.146-20.532-124.347 6.123-1.312.997-.283 2.593 1.255 1.609"/><path fill="#191919" d="M195.07 92.1c11.995 12.88 5.031 30.693-7.674 40.189-1.377 1.03.266 3.044 1.804 1.909 12.836-9.456 20.828-26.619 10.834-41.182-14.022-20.428-45.5-16.344-64.819-.328-11.874-12.833-29.599-34.343-40.105-48.623-1.089-1.476-2.581-.37-1.355 1.312 10.424 14.371 25.993 34.949 37.978 48.613 2.211 2.522 2.832 3.205 5.532 1.066 15.694-12.428 42.215-19.695 57.805-2.955m36.298-34.019c-20.251-28.844-68.812-38-99.544-21.887a1.75 1.75 0 0 0-.865 2.313 1.75 1.75 0 0 0 2.312.87c37.677-14.41 68.716-3.84 95.991 20.684 1.633 1.47 3.454-.058 2.106-1.98m-15.591 163.587c1.791 3.127 4.468 1.476 2.58-1.527s-3.896-6.311-5.914-9.422c-.751-1.159-2.801 0-2.119 1.25a562 562 0 0 0 5.453 9.699"/></svg>
